icons/psychotherapy-fill.svg

<svg viewBox="0 0 24 24" fill="currentColor" xmlns="http://www.w3.org/2000/svg">
    <path d="M11 2C15.0675 2 18.426 5.03562 18.9337 8.96494L21.1842 12.5037C21.3324 12.7367 21.3025 13.0847 20.9593 13.2317L19 14.071V17C19 18.1046 18.1046 19 17 19H15.001L15 22H6L6.00025 18.3061C6.00033 17.1252 5.56351 16.0087 4.7555 15.0011C3.65707 13.6313 3 11.8924 3 10C3 5.58172 6.58172 2 11 2ZM11 7C10.4477 7 10 7.44772 10 8V8.999L9 9C8.44772 9 8 9.44772 8 10C8 10.5523 8.44772 11 9 11L10 10.999V12C10 12.5523 10.4477 13 11 13C11.5523 13 12 12.5523 12 12V11H13C13.5523 11 14 10.5523 14 10C14 9.44772 13.5523 9 13 9H12V8C12 7.44772 11.5523 7 11 7Z"/>
</svg>

<svg xmlns="http://www.w3.org/2000/svg" viewBox="0 0 24 24">
    <g>
        <path fill="none" d="M0 0H24V24H0z"/>
        <path d="M11 2c4.068 0 7.426 3.036 7.934 6.965l2.25 3.539c.148.233.118.58-.225.728L19 14.07V17c0 1.105-.895 2-2 2h-1.999L15 22H6v-3.694c0-1.18-.436-2.297-1.244-3.305C3.657 13.631 3 11.892 3 10c0-4.418 3.582-8 8-8zm0 5c-.552 0-1 .448-1 1v.999L9 9c-.552 0-1 .448-1 1s.448 1 1 1l1-.001V12c0 .552.448 1 1 1s1-.448 1-1v-1h1c.552 0 1-.448 1-1s-.448-1-1-1h-1V8c0-.552-.448-1-1-1z"/>
    </g>
</svg>
